X:18557
T:Weavers, The
R:slide
Z:id:hn-slide-20
M:6/8
K:D
g|:fed B2d|A2d F2B|A2F D2F|E3 E2g|
fed B2d|A2d F2B|A2F EFE|1 D3 D2g:|2 D3 D2e||
|:fdf ~a3|baf a2f|fdf a2f|~g3 f2e|
[1 fdf ~a3|baf a2f|fdf a2f|d3 d2e:|
[2 faf efe|ded BdB|ABA GFE|D3 D2||


